X:374
T:John D. Burgess
R:Jig, pipe march
C:Geo. Cockburn
N:"Edcath"
Z:Transcribed 1997 by John Chambers <jc@trillian.mit.edu>
M:6/8
L:1/8
K:D
|: A   |\
"D" f3  "A7" gfe | "D"  d3       A3  | "D"    d2e "F#m" f2a | "Em/B" agf"A7" e2A |!
"D" f3  "A7" gfe | "D"  d3  "G"  c2B | "D/F#" Adf "G"   aAg | "A7"   fAe"D"  d2 :|!
|| A   |\
"D" f2d "Em" e2B |      dcB "A7" A3  | "D"    d2e "F#m" f2a | "Em/B" agf"A7" e2A |!
"D" f2d "Em" e2B |      dcB "A7" A3  | "D/F#" Adf "G"   aAg | "A7"   fAe"D"  d2  |!
A   |\
"D" f2d "Em" e2B |      dcB "A7" A3  | "D"    d2e "F#m" f2a | "Em/B" agf"A7" e2A |!
"D" f3  "A7" gfe | "D"  d3  "G"  c2B | "D/F#" Adf "G"   aAg | "A7"   fAe"D"  d2 ||
